web/wp-content/themes/cncf-twenty-two/images/projects/parsec-icon-color.svg

<svg id="Layer_1" data-name="Layer 1" xmlns="http://www.w3.org/2000/svg" viewBox="0 0 430 430"><defs><style>.cls-1{fill:#60cfff;}</style></defs><path class="cls-1" d="M368.77655,28.37923H146.59911a15.29018,15.29018,0,1,0,0,8.872H362.12252V278.89316l-43.70364,36.07273a15.24588,15.24588,0,0,0-23.20442,9.89,15.29524,15.29524,0,0,0,29.77139,6.955,15.14513,15.14513,0,0,0-.77854-10.11543l45.98114-37.95218a2.218,2.218,0,0,0,.80611-1.71059V30.59724A2.218,2.218,0,0,0,368.77655,28.37923ZM132.045,39.23319a6.41686,6.41686,0,1,1,6.41577-6.41794A6.42466,6.42466,0,0,1,132.045,39.23319Zm178.17949,295.0106a6.41577,6.41577,0,1,1,6.41577-6.41577A6.42465,6.42465,0,0,1,310.22453,334.24379Z"/><path class="cls-1" d="M213.427,352.29545,160.5115,308.62322a14.71551,14.71551,0,0,0,.73561-11.89917,15.27232,15.27232,0,1,0-19.12,19.62667,14.81271,14.81271,0,0,0,12.26344-1.27247l57.62452,47.5579a2.218,2.218,0,0,0,2.82371-.00006l120.7192-99.639a2.218,2.218,0,0,0,.80612-1.7106V82.74486a15.288,15.288,0,1,0-8.872,0V258.147Zm-72.96476-50.45108a6.41685,6.41685,0,1,1,6.41793,6.41577A6.42281,6.42281,0,0,1,140.46222,301.84437ZM325.51234,68.18863a6.41794,6.41794,0,1,1,6.41577,6.41793A6.42235,6.42235,0,0,1,325.51234,68.18863Z"/><path class="cls-1" d="M125.11592,101.344V240.54028a2.218,2.218,0,0,0,.80612,1.7106l73.40086,60.58337a15.48225,15.48225,0,0,0-.27249,11.19254,14.87487,14.87487,0,0,0,9.49356,9.22341,15.319,15.319,0,1,0-3.56476-27.25437L133.988,237.40076V107.998H292.866V224.58384a15.288,15.288,0,1,0,8.87205,0V101.344a2.218,2.218,0,0,0-2.218-2.218H127.33393A2.218,2.218,0,0,0,125.11592,101.344ZM213.427,302.30357a6.41794,6.41794,0,1,1-6.41794,6.4201A6.426,6.426,0,0,1,213.427,302.30357Zm90.29081-63.16566a6.41577,6.41577,0,1,1-6.41577-6.41577A6.421,6.421,0,0,1,303.71779,239.13791Z"/><path class="cls-1" d="M98.57837,275.101a15.24907,15.24907,0,0,0,.78133-29.41568V72.62465h137.906a15.288,15.288,0,1,0,0-8.87205h-144.56a2.218,2.218,0,0,0-2.218,2.218V245.68527A15.25858,15.25858,0,0,0,98.57837,275.101ZM251.8198,61.77286a6.41685,6.41685,0,1,1-6.41577,6.41577A6.42235,6.42235,0,0,1,251.8198,61.77286ZM94.92368,253.82357a6.41577,6.41577,0,1,1-6.41794,6.41577A6.42235,6.42235,0,0,1,94.92368,253.82357Z"/><path class="cls-1" d="M268.569,343.47337a14.93982,14.93982,0,0,0-9.574,9.10565,15.34361,15.34361,0,0,0,.17468,11.28762L213.427,401.62454,64.73144,278.89316V47.37149a15.29017,15.29017,0,1,0-8.87205,0V282.03268a2.218,2.218,0,0,0,.80613,1.7106L212.01506,411.96511a2.218,2.218,0,0,0,2.82381,0l49.94568-41.22564a15.30231,15.30231,0,1,0,3.78442-27.26607ZM53.87748,32.81525a6.41794,6.41794,0,1,1,6.41794,6.41794A6.4242,6.4242,0,0,1,53.87748,32.81525Zm219.4163,331.64894a6.41577,6.41577,0,1,1,6.4201-6.41577A6.421,6.421,0,0,1,273.29378,364.46419Z"/></svg>

<svg id="Layer_1" data-name="Layer 1" xmlns="http://www.w3.org/2000/svg" viewBox="0 0 430 430"><defs><style>.cls-1{fill:#60cfff}</style></defs><path class="cls-1" d="M368.777 28.38H146.599a15.29 15.29 0 1 0 0 8.871h215.524v241.642l-43.704 36.073a15.246 15.246 0 0 0-23.205 9.89 15.295 15.295 0 0 0 29.772 6.955 15.145 15.145 0 0 0-.779-10.116l45.981-37.952a2.218 2.218 0 0 0 .807-1.71V30.597a2.218 2.218 0 0 0-2.218-2.218zM132.045 39.232a6.417 6.417 0 1 1 6.416-6.418 6.425 6.425 0 0 1-6.416 6.418zm178.18 295.01a6.416 6.416 0 1 1 6.415-6.415 6.425 6.425 0 0 1-6.415 6.416z"/><path class="cls-1" d="M213.427 352.295l-52.915-43.672a14.716 14.716 0 0 0 .735-11.899 15.272 15.272 0 1 0-19.12 19.627 14.813 14.813 0 0 0 12.264-1.273l57.624 47.558a2.218 2.218 0 0 0 2.824 0l120.719-99.639a2.218 2.218 0 0 0 .806-1.71V82.744a15.288 15.288 0 1 0-8.872 0v175.402zm-72.965-50.45a6.417 6.417 0 1 1 6.418 6.415 6.423 6.423 0 0 1-6.418-6.416zm185.05-233.656a6.418 6.418 0 1 1 6.416 6.418 6.422 6.422 0 0 1-6.416-6.418z"/><path class="cls-1" d="M125.116 101.344V240.54a2.218 2.218 0 0 0 .806 1.71l73.4 60.584a15.482 15.482 0 0 0-.272 11.193 14.875 14.875 0 0 0 9.494 9.223 15.319 15.319 0 1 0-3.565-27.254L133.988 237.4V107.998h158.878v116.586a15.288 15.288 0 1 0 8.872 0v-123.24a2.218 2.218 0 0 0-2.218-2.218H127.334a2.218 2.218 0 0 0-2.218 2.218zm88.311 200.96a6.418 6.418 0 1 1-6.418 6.42 6.426 6.426 0 0 1 6.418-6.42zm90.29-63.166a6.416 6.416 0 1 1-6.415-6.416 6.421 6.421 0 0 1 6.416 6.416z"/><path class="cls-1" d="M98.578 275.101a15.25 15.25 0 0 0 .782-29.416V72.625h137.906a15.288 15.288 0 1 0 0-8.872H92.706a2.218 2.218 0 0 0-2.218 2.218v179.714a15.259 15.259 0 0 0 8.09 29.416zM251.82 61.773a6.417 6.417 0 1 1-6.416 6.416 6.422 6.422 0 0 1 6.416-6.416zM94.924 253.823a6.416 6.416 0 1 1-6.418 6.416 6.422 6.422 0 0 1 6.418-6.415z"/><path class="cls-1" d="M268.569 343.473a14.94 14.94 0 0 0-9.574 9.106 15.344 15.344 0 0 0 .175 11.288l-45.743 37.758L64.731 278.893V47.371a15.29 15.29 0 1 0-8.872 0v234.662a2.218 2.218 0 0 0 .807 1.71l155.35 128.222a2.218 2.218 0 0 0 2.823 0l49.946-41.226a15.302 15.302 0 1 0 3.784-27.266zM53.877 32.815a6.418 6.418 0 1 1 6.418 6.418 6.424 6.424 0 0 1-6.418-6.418zm219.417 331.65a6.416 6.416 0 1 1 6.42-6.417 6.421 6.421 0 0 1-6.42 6.416z"/></svg>
